X:9
T:Slippery Jig
R:Slip Jig
O:New Zealand
M:9/8
I:speed 420
C:Mark Fitzsimons
A:Auckland
K: A min
|:EFG AcA GFG|EFG A2G A3|EFG AcA GFE|dcB cBA BAG|
EFG AcA GFE|DCB, C2_B, A,3|A,_B,C DEF GA=B|c2A G2A A3:|
|:e2A cAB cAB|d2A _BGA BGA|cAB _BGA ^GEF|E^CD E2F E3|
e2A cAB cAB|d2A _BGA BGA|1cAB _BGA ^GEF|EFD CDB, A,3:|
|2 c2A B2A G2A|C2A, B,2A, G,3:|
W:
W:
W:Copyright Mark Fitzsimons February 1998
W:mark@greenmanhumming.com
